!!!OTL: Der Markgraf von Backenweil Nun hoeret an und schweiget still,
!!!ARE: Europa, Mitteleuropa, Deutschland / France, Lothringen, Kreis
!!    Saargemuend, Gebenhausen
!!!YOR: 1, S. 126
!!    1917 aufgezeichnet
!!!SCT: Q0013A
!!!YEM: Copyright 1995, estate of Helmut Schaffrath.
**kern
*ICvox
*Ivox
!! Irregular meter.
*MX
*k[b-e-a-d-]
*f:
{8c
8f
8g
=1
8.a-
16f
8g
8e
=2
4f}
{8g
16a-
16a-
8b-
=3
4cc
8cc
4cc
4b-
=4
8.cc
16a-
4g}
=5
{4cc
=6
8b-
8a-
4g
4f
4c
=7
4a-
4g
4f}
{[4g
=8
8g]
8f
8e
8d
8.c
16d
8c
8c
=9
4.f
8g
8.a
16f
4g}
{4b-
4a-
=10
8g
8g
4f
4c
4f
=11
4a-
4g
4f}
==
!!!AGN: Ballade, Krieg, Gefangenschaft, Ehe, Heimkehr
!! Kleinere Melodievarianten aus anderen Quellen abgedruckt.
!!    Variante von Q0013, gesungen durch denselben Saenger
!!!ONB: ESAC (Essen Associative Code) Database: BALLADE
!!!AMT: irregular
!!!AIN: vox
!!!EED: Helmut Schaffrath
!!!EEV: 1.0
*-
